!!!!SEGMENT: pl-wtm--r-730-32-m_moniuszko-stanislaw--l-aumone-au-bal.krn
!!!cenid: 18xx:1712
!!!COM: Moniuszko, Stanisław
!!!COM-rismID: pe30008351
!!!CDT: 1819/05/05-1872/06/04
!!!CNT: Polish
!!!OTL: L'aumone au bal
!!!PDT:
!!!AGN: Secular
!!!YEC: Copyright 2022 Narodowy Instytut Fryderyka Chopina (https://polishscores.org)
!!!YEM: License CC-BY-4.0 (https://creativecommons.org/licenses/by/4.0)
!!!SMS-siglum: PL-Wtm
!!!SMS-shelfmark: R 730/32/M
!!!SMS-shelfwork: W
!!!SMS-variant:
!!!SMS-altvar:
!!!NIFC-rismSourceID: 1001099844
!!!NIFC-rismChildID: 1001099844
!!!NIFC-islandoraID:
!!!URL-pdf-islandora:
!!!URL-scan:
!!!IIIF:
!!!ONB-nifc: Skan 0038, R 730|32 (incpl.)
!!!AIN: 1 forte 1 vox
!!!key:
**kern	**kern	**kern
*part2	*part2	*part1
*staff3	*staff2	*staff1
*Iforte	*Iempty	*Ivox
*I"[Fortepian]	*	*I"[Głos]
*I'pf	*	*I'V
*clefF4	*clefG2	*clefG2
*k[b-e-]	*k[b-e-]	*k[b-e-]
*B-:	*B-:	*B-:
*M3/8	*M3/8	*M3/8
=1	=1	=1
!	!	!LO:TX:t=P:problem=kaudy różnie
!	!	!LO:TX:a:t="L'aumône au bal."    paroles de M[ada]me Desbordes-Valmore.
4.ryy	16.f/LL	4.ryy
.	32g/JJk	.
.	[4f/	.
=2	=2	=2
4.ryy	16.f/LL]	4.ryy
.	32g/JJk	.
.	4f/	.
=3	=3	=3
4.ryy	4.ryy	4.ryy
=4	=4	=4
4.ryy	4.ryy	4.ryy
=5	=5	=5
4FF/	8r	16.f/
.	.	32g/
.	8f/L 8e-/ 8A/	4f/
8r	8f/J 8e-/ 8A/	.
=6	=6	=6
4BB-/	8r	16.f/
.	.	32g/
.	8f/L 8d/ 8B-/	4f/
8r	8f/J 8d/ 8B-/	.
=7	=7	=7
4AA/	8r	8f/
.	8f/L 8e-/ 8c/	16g/
.	.	16a/
8r	8f/J 8e-/ 8c/	16b-/
.	.	16cc/
=8	=8	=8
4BB-/	8r	4cc#X\
.	8f/L 8d/ 8B-/	.
8r	8f/J 8d/ 8B-/	8dd\
=9	=9	=9
4E-\	8r	16dd\LL
.	.	16cc\JJ
.	8e-/L 8c/	8.g/
8r	8e-/J 8c/	.
.	.	16cc\
=10	=10	=10
4F\	8r	16cc\
.	.	16b-\
.	8d/L 8B-/	8d/
8r	8d/J 8B-/	8f/
!!LO:LB:g=original
=11	=11	=11
*tremolo	*tremolo	*
8C/ 8FF/L	8e-/ 8A/L	8f/
8C/ 8FF/	8e-/ 8A/	16en/
.	.	16f/
8C/ 8FF/J	8e-/ 8A/J	16g/
.	.	16f/
*	*Xtremolo	*
*Xtremolo	*	*
=12	=12	=12
4BB-/	8r	4d/
.	8d/L 8B-/	.
8r	8d/J 8B-/	8r
=13	=13	=13
*^	*	*
[4.F/	4AA\	8r	16.f/
.	.	.	32g/
.	.	8e-/L 8c/	4f/
.	8r	8e-/J 8c/	.
=14	=14	=14	=14
4.F/]	4BB-\	8r	16.f/
.	.	.	32g/
.	.	8d/L 8B-/	8g/
.	8r	8d/J 8B-/	8f/
=15	=15	=15	=15
8F/L	4FF\	8f/L 8e-/ 8A/	16f/
.	.	.	16f/
8G/	.	8f/ 8e-/ 8B-/	16g/
.	.	.	16a/
8A/J	8r	8f/J 8e-/ 8c/	16b-/
.	.	.	16cc/
=16	=16	=16	=16
4B-/	4BB-\	8r	4cc#X\
.	.	(8g/L 8en/ 8c#X/	.
8r	8r	8f/J 8d/)	8dd\
*v	*v	*	*
=17	=17	=17
4En\	8r	16dd\LL
.	.	16cc\JJ
.	8g/L 8c/ 8B-/	8.g/
8r	8g/J 8c/ 8B-/	.
.	.	16cc\
=18	=18	=18
(4F\	8r	16dd\
.	.	16cc\
.	8f/L 8c/ 8A/	8.f/
8D\)	8f/J 8Bn/ 8G/	.
.	.	16g/
=19	=19	=19
8C/L	8f/L 8c/ 8A/	16a/
.	.	16b-/
8CC/	8d/ 8B-/	8d/
8C/J	8en/J 8c/ 8G/	8en/
=20	=20	=20
!LO:TX:t=P:problem=mixed beam	!LO:TX:t=P:problem=mixed beam	!
8FF/L	8f/L 8c/ 8A/	4f/
!	!	!LO:SIC:o:s:t:v=prawdopodobnie brak zakońćzenia utworu
8c\J 8F'\	8ff\J 8a'\	.
==	==	==
*-	*-	*-
!!!system-decoration: s1{(s2,s3)}
!!!EED: Leszek Kubiak
!!!EEV: 2021-04-21
!!!ENC: Kamil Watkowski
!!!END: 2021-04-01
